svg/emoji/angry_line.svg

<?xml version="1.0" encoding="UTF-8"?>
<svg width="24px" height="24px" viewBox="0 0 24 24" version="1.1" xmlns="http://www.w3.org/2000/svg" xmlns:xlink="http://www.w3.org/1999/xlink">
    <title>angry_line</title>
    <g id="Icon" stroke="none" stroke-width="1" fill="none" fill-rule="evenodd">
        <g id="Emoji" transform="translate(-144.000000, 0.000000)" fill-rule="nonzero">
            <g id="angry_line" transform="translate(144.000000, 0.000000)">
                <path d="M24,0 L24,24 L0,24 L0,0 L24,0 Z M12.5935,23.2578 L12.5819,23.2595 L12.5109,23.295 L12.4919,23.2987 L12.4767,23.295 L12.4057,23.2595 C12.3958,23.2564 12.387,23.259 12.3821,23.2649 L12.378,23.2758 L12.3609,23.7031 L12.3659,23.7235 L12.3769,23.7357 L12.4805,23.8097 L12.4953,23.8136 L12.5071,23.8097 L12.6107,23.7357 L12.6233,23.7197 L12.6267,23.7031 L12.6096,23.2758 C12.6076,23.2657 12.601,23.2593 12.5935,23.2578 Z M12.8584,23.1453 L12.8445,23.1473 L12.6598,23.2397 L12.6499,23.2499 L12.6472,23.2611 L12.6651,23.6906 L12.6699,23.7034 L12.6784,23.7105 L12.8793,23.8032 C12.8914,23.8069 12.9022,23.803 12.9078,23.7952 L12.9118,23.7812 L12.8777,23.1665 C12.8753,23.1546 12.8674,23.147 12.8584,23.1453 Z M12.143,23.1473 C12.1332,23.1424 12.1222,23.1453 12.1156,23.1526 L12.1099,23.1665 L12.0758,23.7812 C12.0751,23.7927 12.0828,23.8019 12.0926,23.8046 L12.1083,23.8032 L12.3092,23.7105 L12.3186,23.7024 L12.3225,23.6906 L12.3404,23.2611 L12.3372,23.2485 L12.3278,23.2397 L12.143,23.1473 Z" id="MingCute"></path>
                <path d="M12,2 C17.5228,2 22,6.47715 22,12 C22,17.5228 17.5228,22 12,22 C6.47715,22 2,17.5228 2,12 C2,6.47715 6.47715,2 12,2 Z M12,4 C7.58172,4 4,7.58172 4,12 C4,16.4183 7.58172,20 12,20 C16.4183,20 20,16.4183 20,12 C20,7.58172 16.4183,4 12,4 Z M12.0001,13 C13.2675,13 14.4268,13.4728 15.3076,14.2502 C15.7217,14.6157 15.7611,15.2477 15.3956,15.6617 C15.0302,16.0758 14.3982,16.1152 13.9842,15.7497 C13.4547,15.2824 12.7616,15 12.0001,15 C11.2386,15 10.5454,15.2824 10.016,15.7497 C9.60192,16.1152 8.96999,16.0758 8.60452,15.6617 C8.23906,15.2477 8.27846,14.6157 8.69253,14.2502 C9.57334,13.4728 10.7327,13 12.0001,13 Z M8.33989375,8.05943285 L8.44721,8.10557 L10.4472,9.10557 C10.9412,9.35256 11.1414,9.95324 10.8944,10.4472 C10.6650429,10.9059143 10.1307959,11.111301 9.66011306,10.9405396 L9.55279,10.8944 L7.55279,9.89443 C7.05881,9.64744 6.85858,9.04676 7.10557,8.55279 C7.31727571,8.12937857 7.78883531,7.92178347 8.23031758,8.02665052 L8.33989375,8.05943285 Z M15.5528,8.10557 C16.0468,7.85858 16.6474,8.05881 16.8944,8.55279 C17.1237571,9.01147643 16.9675184,9.56217301 16.5485043,9.83625773 L16.4472,9.89443 L14.4472,10.8944 C13.9532,11.1414 13.3526,10.9412 13.1056,10.4472 C12.8762429,9.98852286 13.0324816,9.43782694 13.4514957,9.16374226 L13.5528,9.10557 L15.5528,8.10557 Z" id="形状" fill="#09244B"></path>
            </g>
        </g>
    </g>
</svg>

<svg xmlns="http://www.w3.org/2000/svg" width="24" height="24"><g fill="none" fill-rule="nonzero"><path d="M24 0v24H0V0h24ZM12.594 23.258l-.012.002-.071.035-.02.004-.014-.004-.071-.036c-.01-.003-.019 0-.024.006l-.004.01-.017.428.005.02.01.013.104.074.015.004.012-.004.104-.074.012-.016.004-.017-.017-.427c-.002-.01-.009-.017-.016-.018Zm.264-.113-.014.002-.184.093-.01.01-.003.011.018.43.005.012.008.008.201.092c.012.004.023 0 .029-.008l.004-.014-.034-.614c-.003-.012-.01-.02-.02-.022Zm-.715.002a.023.023 0 0 0-.027.006l-.006.014-.034.614c0 .012.007.02.017.024l.015-.002.201-.093.01-.008.003-.011.018-.43-.003-.012-.01-.01-.184-.092Z"/><path fill="#09244B" d="M12 2c5.523 0 10 4.477 10 10s-4.477 10-10 10S2 17.523 2 12 6.477 2 12 2Zm0 2a8 8 0 1 0 0 16 8 8 0 0 0 0-16Zm0 9c1.268 0 2.427.473 3.308 1.25a1 1 0 1 1-1.324 1.5A2.985 2.985 0 0 0 12 15c-.761 0-1.455.282-1.984.75a1 1 0 1 1-1.323-1.5A4.985 4.985 0 0 1 12 13ZM8.34 8.06l.107.046 2 1a1 1 0 0 1-.787 1.835l-.107-.047-2-1a1 1 0 0 1 .677-1.867l.11.032Zm7.213.046a1 1 0 0 1 .996 1.73l-.102.058-2 1a1 1 0 0 1-.996-1.73l.102-.058 2-1Z"/></g></svg>
